X:625
T:The Star Above the Garter
R:jig
N:
Z:
M:6/8
K:G
"G"d2B BAG|"D"A3 ABA|"C"G2E c2B|"G"BAG "D"ABc|
"G"d2B BAG|"D"A3 ABA|"C"G2E c2E|E2 D "D"D3:|
|:"D"d2e f2a|"G"gfe d2B|"C"G2B c2B|"G"BAG "D"ABc|
"D"d2e f2a|"G"gfe d2B|"C"G2B c2E|E2D "D"D3:|
